X:14229
T:Return to Chernobyl
M:4/4
L:1/8
C:Michael Ferry
S:Kerry Elkin, Fiddletunes, 1992
R:Reel
K:Dm
D2DF ADFA|DFAF GFEC|A,2A,C EA,CE|A,CEG AGEC|
D2DFA DFA|DFAD E/2F/2GA=B|c2Gc EcGc|1 fedc dcAF:|2 fedc dcAc|
|:d2fd gdfd|(3ddd fd efeA|d2fd gdfd |(3eee ef eABA
|1 d2fd gdfd|d2fd gfeg|aa (3aaa ag (3ggg|gf (3fff eABA
:|2 d2fd Adfd|Bdfd Bdfd|cege agfd|gfdc dcAF||
